lib/svgs/sharp-up.svg

<?xml version="1.0" encoding="UTF-8" standalone="no"?>
<svg width="20px" height="20px" viewBox="0 0 20 20" version="1.1" xmlns="http://www.w3.org/2000/svg" xmlns:xlink="http://www.w3.org/1999/xlink">
    <defs></defs>
    <g id="Icons" stroke="none" stroke-width="1" fill="none" fill-rule="evenodd">
        <g id="Web" transform="translate(-193.000000, -744.000000)" fill="#000000">
            <g id="arrow/sharp-up" transform="translate(193.000000, 744.000000)">
                <path d="M9.11582813,2.24709698 L3.11582813,10.497097 C2.82740516,10.8936786 3.11069771,11.45 3.60106978,11.45 L6.75106978,11.4637939 L6.75106978,17.6 C6.75106978,17.9313708 7.01969893,18.2 7.35106978,18.2 L11.8510698,18.2 C12.1824406,18.2 12.4510698,17.9313708 12.4510698,17.6 L12.440726,11.45 L15.6010698,11.45 C16.0914419,11.45 16.3747344,10.8936786 16.0863114,10.497097 L10.0863114,2.24709698 C9.84670224,1.91763434 9.35543733,1.91763434 9.11582813,2.24709698 L9.11582813,2.24709698 M14.4269931,10.25 L11.8510698,10.25 C11.5196989,10.25 11.2510698,10.5186292 11.2510698,10.85 L11.23754,17 L7.95106978,16.970813 L7.95106978,10.85 C7.95106978,10.5186292 7.68244063,10.25 7.35106978,10.25 L4.76672481,10.2673346 L9.61046467,3.52995586 L14.4269931,10.25 L14.4269931,10.25" id="Shape"></path>
            </g>
        </g>
    </g>
</svg>

<svg xmlns="http://www.w3.org/2000/svg" viewBox="0 0 20 20">
    <path fill="#000" fill-rule="evenodd" d="M9.116 2.247l-6 8.25a.6.6 0 0 0 .485.953l3.15.014V17.6a.6.6 0 0 0 .6.6h4.5a.6.6 0 0 0 .6-.6l-.01-6.15h3.16a.6.6 0 0 0 .485-.953l-6-8.25a.6.6 0 0 0-.97 0m5.311 8.003h-2.576a.6.6 0 0 0-.6.6L11.238 17l-3.287-.03v-6.12a.6.6 0 0 0-.6-.6l-2.584.017L9.61 3.53l4.817 6.72"/>
</svg>
